protocol-expert/img/icons/telegram.svg

<svg width="24" height="21" viewBox="0 0 24 21" fill="none" xmlns="http://www.w3.org/2000/svg">
<path d="M23.4498 1.04838C23.3013 0.871297 23.1146 0.730055 22.9038 0.635197C22.693 0.540339 22.4635 0.494315 22.2325 0.50056C21.9413 0.504767 21.6534 0.562169 21.3829 0.669935L1.36762 8.30767C0.30903 8.71258 0.16215 9.32127 0.176706 9.64811C0.191261 9.97495 0.363282 10.5744 1.44569 10.9184H1.46554L5.61654 12.1093L7.86605 18.5284C7.97457 18.9246 8.20623 19.276 8.52757 19.532C8.84891 19.7879 9.2433 19.9351 9.65375 19.9522C10.1922 19.9383 10.7052 19.7197 11.0881 19.3408L13.6552 16.9775L17.3788 19.972L17.4145 20.0011L17.4238 20.0091C17.7928 20.3137 18.2529 20.4865 18.7312 20.5C19.1689 20.4825 19.586 20.309 19.9069 20.0107C20.2277 19.7124 20.4312 19.3091 20.4805 18.8737L23.7608 2.68523C23.8343 2.40647 23.8445 2.1148 23.7907 1.83159C23.7369 1.54837 23.6204 1.28077 23.4498 1.04838ZM7.00462 11.8804L15.0115 7.79029L10.0256 13.0832C9.94394 13.1698 9.88605 13.276 9.85752 13.3916L8.89685 17.2964L7.00462 11.8804ZM10.15 18.3127C10.1169 18.3431 10.0838 18.3709 10.0494 18.396L10.9413 14.7836L12.5635 16.0896L10.15 18.3127ZM22.4071 2.40999L19.1242 18.5985C19.0924 18.7533 18.9918 19.1146 18.7272 19.1146C18.559 19.098 18.4002 19.029 18.2733 18.9174L14.0535 15.5206L11.5394 13.4987L18.7497 5.83718C18.8624 5.71861 18.9294 5.56395 18.9389 5.40066C18.9484 5.23737 18.8997 5.076 18.8015 4.94516C18.7034 4.81433 18.562 4.72249 18.4026 4.68594C18.2432 4.6494 18.076 4.6705 17.9306 4.74551L6.07968 10.8033L1.8731 9.59915L21.8778 1.96406C21.9908 1.9168 22.1114 1.89036 22.2338 1.88599C22.2761 1.88599 22.3515 1.88599 22.3793 1.92569C22.4491 2.07851 22.458 2.25212 22.4045 2.41132L22.4071 2.40999Z" fill="white"/>
</svg>

<svg width="24" height="21" fill="none" xmlns="http://www.w3.org/2000/svg"><path d="M23.45 1.048a1.534 1.534 0 00-1.217-.547c-.292.004-.58.061-.85.169L1.368 8.308C.309 8.713.162 9.32.177 9.648c.014.327.186.926 1.269 1.27h.02l4.15 1.191 2.25 6.42a1.938 1.938 0 001.788 1.423 2.117 2.117 0 001.434-.611l2.567-2.364 3.724 2.995.035.03.01.007a2.15 2.15 0 001.307.491 1.834 1.834 0 001.75-1.626l3.28-16.189a1.933 1.933 0 00-.311-1.637zM7.005 11.88l8.006-4.09-4.985 5.293a.69.69 0 00-.168.309l-.961 3.904-1.892-5.416zm3.145 6.433c-.033.03-.066.058-.1.083l.891-3.612 1.622 1.306-2.413 2.223zM22.407 2.41l-3.283 16.189c-.032.154-.132.516-.397.516a.808.808 0 01-.454-.198l-4.22-3.396-2.514-2.022 7.21-7.662a.692.692 0 00-.818-1.091L6.08 10.803 1.873 9.6l20.005-7.635c.113-.047.233-.074.356-.078.042 0 .117 0 .145.04.07.153.079.326.025.485l.003-.001z" fill="#fff"/></svg>
